X: 1
T: Ol\'ahos  [Em high with harmony]
O: Hungary
B: Geisler
Z: 1998 by John Chambers <jc@trillian.mit.edu> http://trillian.mit.edu/~jc/music/
M: 2/4
L: 1/8
K: Edor
|: "Em"M[BE][e/G/][f/A/] [g/B/][f/A/][eG] | M[BE][e/G/][f/A/] [g/B/][f/A/][eG] \
| [bg][bg] [^af][ge] | "B7"[f2B2] [f2B2] :|
|: "G"[bg]>[c'a] [d'b][d'b] | [e'g][d'g] [c'a][bg] \
| [c'e][be] [^af][ge] | "B7"[f2^d2] [f2d2] \
|  "G"[bg]>[c'a] [d'b][d'b] | [e'g][d'g] [c'a][bg] \
| "B7"[c'a][bg] [ge][f^d] | "Em"[e2B2] [e2B2] :|
